icon/ir/add-page.svg

<svg stroke-width="1.5" viewBox="0 0 24 24" fill="none" xmlns="http://www.w3.org/2000/svg" height="1em" width="1em">
  <path d="M9 12H12M15 12H12M12 12V9M12 12V15" stroke="currentColor" stroke-linecap="round" stroke-linejoin="round"/>
  <path d="M4 21.4V2.6C4 2.26863 4.26863 2 4.6 2H16.2515C16.4106 2 16.5632 2.06321 16.6757 2.17574L19.8243 5.32426C19.9368 5.43679 20 5.5894 20 5.74853V21.4C20 21.7314 19.7314 22 19.4 22H4.6C4.26863 22 4 21.7314 4 21.4Z" stroke="currentColor" stroke-linecap="round" stroke-linejoin="round"/>
  <path d="M16 5.4V2.35355C16 2.15829 16.1583 2 16.3536 2C16.4473 2 16.5372 2.03725 16.6036 2.10355L19.8964 5.39645C19.9628 5.46275 20 5.55268 20 5.64645C20 5.84171 19.8417 6 19.6464 6H16.6C16.2686 6 16 5.73137 16 5.4Z" fill="currentColor" stroke="currentColor" stroke-linecap="round" stroke-linejoin="round"/>
</svg>

<svg width="24" height="24" stroke-width="1.5" fill="none" xmlns="http://www.w3.org/2000/svg"><path d="M9 12h3m3 0h-3m0 0V9m0 3v3M4 21.4V2.6a.6.6 0 0 1 .6-.6h11.652a.6.6 0 0 1 .424.176l3.148 3.148A.6.6 0 0 1 20 5.75V21.4a.6.6 0 0 1-.6.6H4.6a.6.6 0 0 1-.6-.6Z" stroke="currentColor" stroke-linecap="round" stroke-linejoin="round"/><path d="M16 5.4V2.354a.354.354 0 0 1 .604-.25l3.292 3.292a.353.353 0 0 1-.25.604H16.6a.6.6 0 0 1-.6-.6Z" fill="currentColor" stroke="currentColor" stroke-linecap="round" stroke-linejoin="round"/></svg>
